X:117
T: SIE GING ZUM SONNTAGSTANZE
N: B0148
O: Europa, Mitteleuropa, Deutschland, Thueringen
R: Ballade, Romanze
M: 6/8
L: 1/8
K: Bb
F | B2BAGA | B3F2
F | d2BFGA | B3z2
d | d2ddcd | B2AGA
B | cdcBAG | F3z2
F | edccBA | BdcBA
B | GedcBA | B3z2

